Numix-GalliumOS/24/emblems/emblem-insync-error.svg

<?xml version="1.0" encoding="UTF-8" standalone="no"?>
<svg
   xmlns:dc="http://purl.org/dc/elements/1.1/"
   xmlns:cc="http://creativecommons.org/ns#"
   xmlns:rdf="http://www.w3.org/1999/02/22-rdf-syntax-ns#"
   xmlns:svg="http://www.w3.org/2000/svg"
   xmlns="http://www.w3.org/2000/svg"
   xmlns:sodipodi="http://sodipodi.sourceforge.net/DTD/sodipodi-0.dtd"
   xmlns:inkscape="http://www.inkscape.org/namespaces/inkscape"
   width="24"
   height="24"
   viewBox="0 0 24 24"
   id="svg2"
   version="1.1"
   inkscape:version="0.91 r"
   sodipodi:docname="emblem-insync-error.svg">
  <metadata
     id="metadata12">
    <rdf:RDF>
      <cc:Work
         rdf:about="">
        <dc:format>image/svg+xml</dc:format>
        <dc:type
           rdf:resource="http://purl.org/dc/dcmitype/StillImage" />
        <dc:title></dc:title>
      </cc:Work>
    </rdf:RDF>
  </metadata>
  <defs
     id="defs10" />
  <sodipodi:namedview
     pagecolor="#ffffff"
     bordercolor="#666666"
     borderopacity="1"
     objecttolerance="10"
     gridtolerance="10"
     guidetolerance="10"
     inkscape:pageopacity="0"
     inkscape:pageshadow="2"
     inkscape:window-width="1366"
     inkscape:window-height="747"
     id="namedview8"
     showgrid="false"
     inkscape:zoom="9.8333333"
     inkscape:cx="-9.3050847"
     inkscape:cy="12"
     inkscape:window-x="0"
     inkscape:window-y="21"
     inkscape:window-maximized="1"
     inkscape:current-layer="svg2" />
  <path
     style="fill:#dc322f;stroke:#777;stroke-width:0.792;fill-opacity:1"
     d="M 43.601562 24 C 43.601562 34.828125 34.828125 43.601562 24 43.601562 C 13.171875 43.601562 4.398438 34.828125 4.398438 24 C 4.390625 13.171875 13.171875 4.390625 24 4.390625 C 34.828125 4.390625 43.609375 13.171875 43.601562 24 Z "
     transform="scale(.5)"
     id="path4" />
  <path
     style="fill:#ffffff;fill-opacity:1"
     d="M 15.230469 6 L 12 9.230469 L 8.769531 6 L 6 8.769531 L 9.230469 12 L 6 15.230469 L 8.769531 18 L 12 14.769531 L 15.230469 18 L 18 15.230469 L 14.769531 12 L 18 8.769531 Z "
     id="path6" />
</svg>

<svg xmlns="http://www.w3.org/2000/svg" viewBox="0 0 24 24">
 <path d="m 43.602 24 c 0 10.828 -8.773 19.602 -19.602 19.602 c -10.828 0 -19.602 -8.773 -19.602 -19.602 c -0.008 -10.828 8.773 -19.609 19.602 -19.609 c 10.828 0 19.609 8.781 19.602 19.609 Z" transform="scale(.5)" style="fill:#dc322f;fill-opacity:1;stroke:#777;stroke-width:0.792"/>
 <path d="m 15.23 6 l -3.23 3.23 l -3.23 -3.23 l -2.77 2.77 l 3.23 3.23 l -3.23 3.23 l 2.77 2.77 l 3.23 -3.23 l 3.23 3.23 l 2.77 -2.77 l -3.23 -3.23 l 3.23 -3.23 Z" style="fill:#fff;fill-opacity:1"/>
</svg>
